X:6743
T:Hanter dro
C:Pennec, Tablatures 2
M:3/4
L:1/16
K:G
G2DG B2c2 A2AB|G2DG B2c2 A4|\
G2DG B2c2 A2AB|G2DG c2B2 A4||
|:B2B2 ABd2 G2GB|A2cB G2GB A4|\
B2B2 A2Bd G2GB|A2Ac BGAF G4:|
